resources/devices/speaker_1.svg

<?xml version="1.0" encoding="UTF-8" standalone="no"?>
<svg
   width="50"
   height="80"
   version="1.1"
   id="svg7"
   sodipodi:docname="speaker_1.svg"
   inkscape:version="1.3.2 (091e20e, 2023-11-25)"
   xmlns:inkscape="http://www.inkscape.org/namespaces/inkscape"
   xmlns:sodipodi="http://sodipodi.sourceforge.net/DTD/sodipodi-0.dtd"
   xmlns="http://www.w3.org/2000/svg"
   xmlns:svg="http://www.w3.org/2000/svg">
  <defs
     id="defs1" />
  <sodipodi:namedview
     id="namedview7"
     pagecolor="#ffffff"
     bordercolor="#000000"
     borderopacity="0.25"
     inkscape:showpageshadow="2"
     inkscape:pageopacity="0.0"
     inkscape:pagecheckerboard="0"
     inkscape:deskcolor="#d1d1d1"
     inkscape:current-layer="svg7" />
  <path
     id="rect1"
     style="color:#000000;fill:#000000;stroke-linecap:square;stroke-linejoin:round;stroke-miterlimit:4.7;-inkscape-stroke:none"
     d="M 4.0703125 4.5917969 C 3.3567284 4.5917969 2.9008867 5.0706212 2.7265625 5.375 C 2.5522383 5.6793788 2.5136719 5.928861 2.5136719 6.1816406 L 2.5136719 73.818359 C 2.5136719 74.07114 2.5522391 74.320621 2.7265625 74.625 C 2.9008863 74.929379 3.3567264 75.408203 4.0703125 75.408203 L 45.929688 75.408203 C 46.643294 75.408203 47.099119 74.929376 47.273438 74.625 C 47.447757 74.320624 47.486328 74.071137 47.486328 73.818359 L 47.486328 6.1816406 C 47.486328 5.9288634 47.447757 5.6793759 47.273438 5.375 C 47.099119 5.0706241 46.643292 4.5917969 45.929688 4.5917969 L 4.0703125 4.5917969 z M 5.5371094 7.6152344 L 44.462891 7.6152344 L 44.462891 72.384766 L 5.5371094 72.384766 L 5.5371094 7.6152344 z M 10.015625 10.527344 A 1.5006526 1.4760234 0 0 0 8.515625 12.001953 A 1.5006526 1.4760234 0 0 0 10.015625 13.478516 A 1.5006526 1.4760234 0 0 0 11.517578 12.001953 A 1.5006526 1.4760234 0 0 0 10.015625 10.527344 z M 39.984375 10.527344 A 1.5006526 1.4760234 0 0 0 38.482422 12.001953 A 1.5006526 1.4760234 0 0 0 39.984375 13.478516 A 1.5006526 1.4760234 0 0 0 41.484375 12.001953 A 1.5006526 1.4760234 0 0 0 39.984375 10.527344 z M 25 12.111328 C 20.886533 12.110718 17.494982 15.431392 17.496094 19.517578 C 17.496359 23.602821 20.887483 26.922485 25 26.921875 C 29.112517 26.922485 32.503641 23.602821 32.503906 19.517578 C 32.505006 15.431392 29.113467 12.110718 25 12.111328 z M 25 15.134766 C 27.506268 15.134394 29.481129 17.092674 29.480469 19.517578 C 29.480312 21.9419 27.505667 23.898809 25 23.898438 C 22.494333 23.898809 20.519688 21.9419 20.519531 19.517578 C 20.518871 17.092674 22.493732 15.134394 25 15.134766 z M 25 35.544922 C 16.750503 35.545403 10.005993 42.16404 10.005859 50.318359 C 10.005993 58.472682 16.750502 65.091315 25 65.091797 C 33.249498 65.091315 39.994007 58.472682 39.994141 50.318359 C 39.994007 42.16404 33.249497 35.545403 25 35.544922 z M 25 38.568359 C 31.642819 38.568747 36.970597 43.824782 36.970703 50.318359 C 36.970597 56.811939 31.642819 62.067972 25 62.068359 C 18.357181 62.067972 13.029403 56.811939 13.029297 50.318359 C 13.029403 43.824782 18.357181 38.568747 25 38.568359 z M 25 42.914062 C 20.887483 42.913453 17.496359 46.233116 17.496094 50.318359 C 17.496358 54.403603 20.887482 57.723266 25 57.722656 C 29.112518 57.723266 32.503642 54.403603 32.503906 50.318359 C 32.503641 46.233116 29.112517 42.913453 25 42.914062 z M 25 45.9375 C 27.505667 45.937128 29.480312 47.894038 29.480469 50.318359 C 29.480312 52.742682 27.505667 54.69959 25 54.699219 C 22.494333 54.69959 20.519688 52.742682 20.519531 50.318359 C 20.519688 47.894038 22.494333 45.937128 25 45.9375 z M 10.015625 67.998047 A 1.5006526 1.4760234 0 0 0 8.515625 69.472656 A 1.5006526 1.4760234 0 0 0 10.015625 70.949219 A 1.5006526 1.4760234 0 0 0 11.517578 69.472656 A 1.5006526 1.4760234 0 0 0 10.015625 67.998047 z M 39.984375 67.998047 A 1.5006526 1.4760234 0 0 0 38.482422 69.472656 A 1.5006526 1.4760234 0 0 0 39.984375 70.949219 A 1.5006526 1.4760234 0 0 0 41.484375 69.472656 A 1.5006526 1.4760234 0 0 0 39.984375 67.998047 z "
     inkscape:label="speaker" />
</svg>

<svg xmlns="http://www.w3.org/2000/svg" width="50" height="80">
    <path d="M4.07 4.592c-.713 0-1.17.479-1.343.783a1.5 1.5 0 0 0-.213.807v67.636c0 .253.038.503.213.807.174.304.63.783 1.343.783h41.86c.713 0 1.17-.479 1.343-.783.175-.304.213-.554.213-.807V6.182c0-.253-.038-.503-.213-.807-.174-.304-.63-.783-1.343-.783zm1.467 3.023h38.926v64.77H5.537zm4.479 2.912a1.5 1.476 0 0 0-1.5 1.475 1.5 1.476 0 0 0 1.5 1.477 1.5 1.476 0 0 0 1.502-1.477 1.5 1.476 0 0 0-1.502-1.475m29.968 0a1.5 1.476 0 0 0-1.502 1.475 1.5 1.476 0 0 0 1.502 1.477 1.5 1.476 0 0 0 1.5-1.477 1.5 1.476 0 0 0-1.5-1.475M25 12.111c-4.113 0-7.505 3.32-7.504 7.407 0 4.085 3.391 7.404 7.504 7.404s7.504-3.32 7.504-7.404c.001-4.087-3.39-7.407-7.504-7.407m0 3.024c2.506 0 4.481 1.958 4.48 4.383s-1.974 4.38-4.48 4.38-4.48-1.956-4.48-4.38c-.001-2.425 1.974-4.384 4.48-4.383m0 20.41c-8.25 0-14.994 6.619-14.994 14.773S16.75 65.091 25 65.092s14.994-6.62 14.994-14.774S33.25 35.545 25 35.545m0 3.023c6.643 0 11.97 5.257 11.97 11.75S31.644 62.068 25 62.068s-11.97-5.256-11.97-11.75 5.327-11.75 11.97-11.75m0 4.346c-4.113 0-7.504 3.32-7.504 7.404 0 4.086 3.391 7.405 7.504 7.405s7.504-3.32 7.504-7.405-3.391-7.405-7.504-7.404m0 3.023c2.506 0 4.48 1.957 4.48 4.381S27.506 54.7 25 54.7s-4.48-1.956-4.48-4.38 1.974-4.382 4.48-4.382M10.016 67.999a1.5 1.476 0 0 0-1.5 1.475 1.5 1.476 0 0 0 1.5 1.476 1.5 1.476 0 0 0 1.502-1.476 1.5 1.476 0 0 0-1.502-1.475m29.968 0a1.5 1.476 0 0 0-1.502 1.475 1.5 1.476 0 0 0 1.502 1.476 1.5 1.476 0 0 0 1.5-1.476 1.5 1.476 0 0 0-1.5-1.475" style="color:#000;fill:#000;stroke-linecap:square;stroke-linejoin:round;stroke-miterlimit:4.7;-inkscape-stroke:none"/>
</svg>
